SVG_Azure_Grouped/Management/Azure Test Plan.svg

<?xml version="1.0" encoding="UTF-8" standalone="no"?>
<!-- Generated by Microsoft Visio, SVG Export Azure Test Plan.svg Page-1 -->

<svg
   xmlns:dc="http://purl.org/dc/elements/1.1/"
   xmlns:cc="http://creativecommons.org/ns#"
   xmlns:rdf="http://www.w3.org/1999/02/22-rdf-syntax-ns#"
   xmlns:svg="http://www.w3.org/2000/svg"
   xmlns="http://www.w3.org/2000/svg"
   xmlns:sodipodi="http://sodipodi.sourceforge.net/DTD/sodipodi-0.dtd"
   xmlns:inkscape="http://www.inkscape.org/namespaces/inkscape"
   width="0.73959339in"
   height="0.70869309in"
   viewBox="0 0 53.250722 51.025821"
   xml:space="preserve"
   class="st11"
   version="1.1"
   id="svg66"
   sodipodi:docname="Azure Test Plan.svg"
   style="font-size:12px;overflow:visible;color-interpolation-filters:sRGB;fill:none;fill-rule:evenodd;stroke-linecap:square;stroke-miterlimit:3"
   inkscape:version="0.92.5 (2060ec1f9f, 2020-04-08)"><metadata
   id="metadata72"><rdf:RDF><cc:Work
       rdf:about=""><dc:format>image/svg+xml</dc:format><dc:type
         rdf:resource="http://purl.org/dc/dcmitype/StillImage" /></cc:Work></rdf:RDF></metadata><defs
   id="defs70" /><sodipodi:namedview
   pagecolor="#ffffff"
   bordercolor="#666666"
   borderopacity="1"
   objecttolerance="10"
   gridtolerance="10"
   guidetolerance="10"
   inkscape:pageopacity="0"
   inkscape:pageshadow="2"
   inkscape:window-width="640"
   inkscape:window-height="480"
   id="namedview68"
   showgrid="false"
   inkscape:zoom="1.963572"
   inkscape:cx="35.511294"
   inkscape:cy="14.737934"
   inkscape:window-x="0"
   inkscape:window-y="0"
   inkscape:window-maximized="0"
   inkscape:current-layer="svg66" />
	<style
   type="text/css"
   id="style2">
	<![CDATA[
		.st1 {fill:#915acd;stroke:none;stroke-linecap:butt;stroke-width:0.75}
		.st2 {fill:#661db0;stroke:none;stroke-linecap:butt;stroke-width:0.75}
		.st3 {fill:#a062df;stroke:none;stroke-linecap:butt;stroke-width:0.75}
		.st4 {fill:#945ccf;stroke:none;stroke-linecap:butt;stroke-width:0.75}
		.st5 {fill:#cea8f6;stroke:none;stroke-linecap:butt;stroke-width:0.75}
		.st6 {fill:#be95ea;stroke:none;stroke-linecap:butt;stroke-width:0.75}
		.st7 {fill:#e5cfff;stroke:none;stroke-linecap:butt;stroke-width:0.75}
		.st8 {fill:#b88ee7;stroke:none;stroke-linecap:butt;stroke-width:0.75}
		.st9 {fill:#9d6bd5;stroke:none;stroke-linecap:butt;stroke-width:0.75}
		.st10 {fill:#874cc7;stroke:none;stroke-linecap:butt;stroke-width:0.75}
		.st11 {fill:none;fill-rule:evenodd;font-size:12px;overflow:visible;stroke-linecap:square;stroke-miterlimit:3}
	]]>
	</style>

	<g
   id="g64"
   transform="translate(-7.3822804,-5.0984695)">
		<title
   id="title4">Page-1</title>
		<g
   id="group12555-1"
   transform="translate(5.66929,-34.0157)">
			<title
   id="title6">Azure Test Plan.12555</title>
			<g
   id="shape12556-2"
   transform="translate(19.347,-37.2781)">
				<title
   id="title8">path2</title>
				<path
   d="M 17.75,81.71 H 0 v 8.43 h 17.75 z"
   class="st1"
   id="path10"
   inkscape:connector-curvature="0"
   style="fill:#915acd;stroke:none;stroke-width:0.75;stroke-linecap:butt" />
			</g>
			<g
   id="shape12557-4">
				<title
   id="title13">path4</title>
				<path
   d="M 54.03,80.48 50.31,74.49 H 34.42 c 0,0.03 0,0.07 0,0.1 0,4.94 -4.33,8.95 -9.65,8.95 -5.33,0 -9.65,-4.01 -9.65,-8.95 0,-0.03 0,-0.07 0,-0.1 h -8.8 l -3.69,6.03 c -2.63,4.3 0.71,9.62 6.04,9.62 h 39.34 c 5.34,0 8.68,-5.36 6.02,-9.66 z"
   class="st2"
   id="path15"
   inkscape:connector-curvature="0"
   style="fill:#661db0;stroke:none;stroke-width:0.75;stroke-linecap:butt" />
			</g>
			<g
   id="shape12558-6"
   transform="translate(15.1281,-6.59452)">
				<title
   id="title18">path6</title>
				<path
   d="m 0,81.2 c 0,4.93 4.32,8.94 9.65,8.94 5.33,0 9.65,-4.01 9.65,-8.94 0,-0.04 0,-0.07 0,-0.11 H 0 c 0,0.04 0,0.07 0,0.11 z"
   class="st3"
   id="path20"
   inkscape:connector-curvature="0"
   style="fill:#a062df;stroke:none;stroke-width:0.75;stroke-linecap:butt" />
			</g>
			<g
   id="shape12559-8"
   transform="translate(6.31939,-15.6449)">
				<title
   id="title23">path8</title>
				<path
   d="m 18.45,81.3 c 0.5,0 0.99,0.03 1.47,0.1 0.55,-2.26 2.73,-3.94 5.34,-3.94 3.02,0 5.47,2.27 5.47,5.07 0,2.07 -1.33,3.84 -3.23,4.64 0.37,0.93 0.57,1.92 0.58,2.97 h 15.9 L 30.78,68.86 V 68.51 H 13.03 v 0.35 L 0,90.13 h 8.81 c 0.06,-4.88 4.35,-8.83 9.64,-8.83 z"
   class="st4"
   id="path25"
   inkscape:connector-curvature="0"
   style="fill:#945ccf;stroke:none;stroke-width:0.75;stroke-linecap:butt" />
			</g>
			<g
   id="shape12560-10"
   transform="translate(15.1281,-15.6576)">
				<title
   id="title28">path10</title>
				<path
   d="m 16.45,87.63 c -3.03,0 -5.48,-2.28 -5.48,-5.08 0,-0.39 0.05,-0.77 0.14,-1.13 -0.48,-0.07 -0.97,-0.11 -1.47,-0.11 -5.29,0 -9.58,3.95 -9.64,8.83 h 19.29 c -0.02,-1.04 -0.22,-2.04 -0.58,-2.97 -0.69,0.29 -1.46,0.46 -2.26,0.46 z"
   class="st5"
   id="path30"
   inkscape:connector-curvature="0"
   style="fill:#cea8f6;stroke:none;stroke-width:0.75;stroke-linecap:butt" />
			</g>
			<g
   id="shape12561-12"
   transform="translate(26.234,-18.6271)">
				<title
   id="title33">path12</title>
				<path
   d="m 7.59,90.14 c 1.91,-0.79 3.23,-2.57 3.23,-4.63 0,-2.81 -2.45,-5.08 -5.48,-5.08 -2.61,0 -4.79,1.69 -5.34,3.95 3.51,0.5 6.4,2.76 7.59,5.76 z"
   class="st6"
   id="path35"
   inkscape:connector-curvature="0"
   style="fill:#be95ea;stroke:none;stroke-width:0.75;stroke-linecap:butt" />
			</g>
			<g
   id="shape12562-14"
   transform="translate(26.0938,-18.1737)">
				<title
   id="title38">path14</title>
				<path
   d="m 5.48,90.14 c 0.8,0 1.56,-0.16 2.25,-0.45 C 6.53,86.67 3.64,84.42 0.14,83.92 0.05,84.28 0,84.67 0,85.05 c 0,2.82 2.45,5.09 5.48,5.09 z"
   class="st7"
   id="path40"
   inkscape:connector-curvature="0"
   style="fill:#e5cfff;stroke:none;stroke-width:0.75;stroke-linecap:butt" />
			</g>
			<g
   id="shape12563-16"
   transform="translate(16.557,-47.2959)">
				<title
   id="title43">path16</title>
				<path
   d="M 2.79,86.41 H 1.52 C 0.68,86.41 0,87.04 0,87.82 v 0.91 c 0,0.78 0.68,1.41 1.52,1.41 h 1.27 z"
   class="st8"
   id="path45"
   inkscape:connector-curvature="0"
   style="fill:#b88ee7;stroke:none;stroke-width:0.75;stroke-linecap:butt" />
			</g>
			<g
   id="shape12564-18"
   transform="translate(37.1001,-47.2959)">
				<title
   id="title48">path18</title>
				<path
   d="m 2.64,88.73 v -0.91 c 0,-0.78 -0.68,-1.41 -1.52,-1.41 H 0 v 3.73 h 1.12 c 0.84,0 1.52,-0.63 1.52,-1.41 z"
   class="st8"
   id="path50"
   inkscape:connector-curvature="0"
   style="fill:#b88ee7;stroke:none;stroke-width:0.75;stroke-linecap:butt" />
			</g>
			<g
   id="shape12565-20"
   transform="translate(19.347,-47.2959)">
				<title
   id="title53">path20</title>
				<path
   d="M 17.75,86.41 H 0 v 3.73 h 17.75 z"
   class="st9"
   id="path55"
   inkscape:connector-curvature="0"
   style="fill:#9d6bd5;stroke:none;stroke-width:0.75;stroke-linecap:butt" />
			</g>
			<g
   id="shape12566-22"
   transform="translate(19.347,-45.7118)">
				<title
   id="title58">path22</title>
				<path
   d="M 17.75,88.56 H 0 v 1.58 h 17.75 z"
   class="st10"
   id="path60"
   inkscape:connector-curvature="0"
   style="fill:#874cc7;stroke:none;stroke-width:0.75;stroke-linecap:butt" />
			</g>
		</g>
	</g>
</svg>

<?xml version="1.0" encoding="UTF-8" standalone="no"?>
<!DOCTYPE svg PUBLIC "-//W3C//DTD SVG 1.1//EN" "http://www.w3.org/Graphics/SVG/1.1/DTD/svg11.dtd">
<!-- Generated by Microsoft Visio, SVG Export Azure Test Plan.svg Page-1 -->
<svg xmlns="http://www.w3.org/2000/svg" xmlns:xlink="http://www.w3.org/1999/xlink" xmlns:ev="http://www.w3.org/2001/xml-events"
		width="0.944882in" height="1.25197in" viewBox="0 0 68.0315 90.1417" xml:space="preserve" color-interpolation-filters="sRGB"
		class="st11">
	<style type="text/css">
	<![CDATA[
		.st1 {fill:#915acd;stroke:none;stroke-linecap:butt;stroke-width:0.75}
		.st2 {fill:#661db0;stroke:none;stroke-linecap:butt;stroke-width:0.75}
		.st3 {fill:#a062df;stroke:none;stroke-linecap:butt;stroke-width:0.75}
		.st4 {fill:#945ccf;stroke:none;stroke-linecap:butt;stroke-width:0.75}
		.st5 {fill:#cea8f6;stroke:none;stroke-linecap:butt;stroke-width:0.75}
		.st6 {fill:#be95ea;stroke:none;stroke-linecap:butt;stroke-width:0.75}
		.st7 {fill:#e5cfff;stroke:none;stroke-linecap:butt;stroke-width:0.75}
		.st8 {fill:#b88ee7;stroke:none;stroke-linecap:butt;stroke-width:0.75}
		.st9 {fill:#9d6bd5;stroke:none;stroke-linecap:butt;stroke-width:0.75}
		.st10 {fill:#874cc7;stroke:none;stroke-linecap:butt;stroke-width:0.75}
		.st11 {fill:none;fill-rule:evenodd;font-size:12px;overflow:visible;stroke-linecap:square;stroke-miterlimit:3}
	]]>
	</style>

	<g>
		<title>Page-1</title>
		<g id="group12273-1" transform="translate(5.66929,-34.0157)">
			<title>Azure Test Plan.12273</title>
			<g id="shape12274-2" transform="translate(19.347,-37.2781)">
				<title>path2</title>
				<path d="M17.75 81.71 L0 81.71 L0 90.14 L17.75 90.14 L17.75 81.71 Z" class="st1"/>
			</g>
			<g id="shape12275-4">
				<title>path4</title>
				<path d="M54.03 80.48 L50.31 74.49 L34.42 74.49 C34.42 74.52 34.42 74.56 34.42 74.59 C34.42 79.53 30.09 83.54 24.77
							 83.54 C19.44 83.54 15.12 79.53 15.12 74.59 C15.12 74.56 15.12 74.52 15.12 74.49 L6.32 74.49 L2.63 80.52
							 C0 84.82 3.34 90.14 8.67 90.14 L48.01 90.14 C53.35 90.14 56.69 84.78 54.03 80.48 Z" class="st2"/>
			</g>
			<g id="shape12276-6" transform="translate(15.1281,-6.59452)">
				<title>path6</title>
				<path d="M0 81.2 C0 86.13 4.32 90.14 9.65 90.14 C14.98 90.14 19.3 86.13 19.3 81.2 C19.3 81.16 19.3 81.13 19.3 81.09
							 L0 81.09 C0 81.13 0 81.16 0 81.2 Z" class="st3"/>
			</g>
			<g id="shape12277-8" transform="translate(6.31939,-15.6449)">
				<title>path8</title>
				<path d="M18.45 81.3 C18.95 81.3 19.44 81.33 19.92 81.4 C20.47 79.14 22.65 77.46 25.26 77.46 C28.28 77.46 30.73 79.73
							 30.73 82.53 C30.73 84.6 29.4 86.37 27.5 87.17 C27.87 88.1 28.07 89.09 28.08 90.14 L43.98 90.14 L30.78
							 68.86 L30.78 68.51 L13.03 68.51 L13.03 68.86 L0 90.13 L8.81 90.13 C8.87 85.25 13.16 81.3 18.45 81.3
							 Z" class="st4"/>
			</g>
			<g id="shape12278-10" transform="translate(15.1281,-15.6576)">
				<title>path10</title>
				<path d="M16.45 87.63 C13.42 87.63 10.97 85.35 10.97 82.55 C10.97 82.16 11.02 81.78 11.11 81.42 C10.63 81.35 10.14
							 81.31 9.64 81.31 C4.35 81.31 0.06 85.26 0 90.14 L19.29 90.14 C19.27 89.1 19.07 88.1 18.71 87.17 C18.02
							 87.46 17.25 87.63 16.45 87.63 Z" class="st5"/>
			</g>
			<g id="shape12279-12" transform="translate(26.234,-18.6271)">
				<title>path12</title>
				<path d="M7.59 90.14 C9.5 89.35 10.82 87.57 10.82 85.51 C10.82 82.7 8.37 80.43 5.34 80.43 C2.73 80.43 0.55 82.12
							 0 84.38 C3.51 84.88 6.4 87.14 7.59 90.14 Z" class="st6"/>
			</g>
			<g id="shape12280-14" transform="translate(26.0938,-18.1737)">
				<title>path14</title>
				<path d="M5.48 90.14 C6.28 90.14 7.04 89.98 7.73 89.69 C6.53 86.67 3.64 84.42 0.14 83.92 C0.05 84.28 0 84.67 0 85.05
							 C0 87.87 2.45 90.14 5.48 90.14 Z" class="st7"/>
			</g>
			<g id="shape12281-16" transform="translate(16.557,-47.2959)">
				<title>path16</title>
				<path d="M2.79 86.41 L1.52 86.41 C0.68 86.41 0 87.04 0 87.82 L0 88.73 C0 89.51 0.68 90.14 1.52 90.14 L2.79 90.14
							 L2.79 86.41 Z" class="st8"/>
			</g>
			<g id="shape12282-18" transform="translate(37.1001,-47.2959)">
				<title>path18</title>
				<path d="M2.64 88.73 L2.64 87.82 C2.64 87.04 1.96 86.41 1.12 86.41 L0 86.41 L0 90.14 L1.12 90.14 C1.96 90.14 2.64
							 89.51 2.64 88.73 Z" class="st8"/>
			</g>
			<g id="shape12283-20" transform="translate(19.347,-47.2959)">
				<title>path20</title>
				<path d="M17.75 86.41 L0 86.41 L0 90.14 L17.75 90.14 L17.75 86.41 Z" class="st9"/>
			</g>
			<g id="shape12284-22" transform="translate(19.347,-45.7118)">
				<title>path22</title>
				<path d="M17.75 88.56 L0 88.56 L0 90.14 L17.75 90.14 L17.75 88.56 Z" class="st10"/>
			</g>
		</g>
	</g>
</svg>
